X:1
T:Title
%%score { ( 1 3 5 ) | ( 2 4 ) }
L:1/8
M:6/8
K:Db
V:1 treble nm="Grand Piano"
V:3 treble 
V:5 treble 
V:2 bass 
V:4 bass 
V:1
 z3 z2[Q:1/4=100] [FA] | [FA]>[DF][EG] [FA]2 [FA] | .d3 z3 | .A3 .A3 |[M:5/8] A-A- A3 | %5
[M:1/8] [FA] |[M:3/4] [FA]>[DF] [EG] [FA]2 [Fd] | [Ge]2 [CGB] [FA]2 [F=A] | B>A Bc- c/B/A | %9
[M:5/8] [Fd]-[Fd]- [Fd]3 |[M:1/8] A |[M:3/4] A6 | z2 F F2 d | c6 | d4 z2 | B6 | d6 | c6 | B4 z A | %19
 f6 | z2 F F2 d | f6 | B4 z2 | z2 .G2 z/ B/A | A6 | d6- |[M:5/8] d-d- d3 |] %27
V:2
 z3 z2 [D,A,] | [D,A,]2 [D,A,] [D,A,]2 [D,A,] | [D,B,]2 [D,B,] [D,A,]2 [D,A,] | %3
 [A,,G,]2 [A,,G,] [A,,G,]2 [A,,G,] |[M:5/8] [D,F,D]2 [E,G,] [F,A,]2 |[M:1/8] [D,A,] | %6
[M:3/4] [D,A,]2 [D,A,] [D,A,]2 [D,A,] | z z/[K:treble] d/[K:bass] D, [D,D]2 [D,D] | E2 z .[A,G]3 | %9
[M:5/8][K:bass] [D,A,]-[D,A,]- [D,A,]3 |[M:1/8] z |[M:3/4] z2 [D,D] .[D,D]3 | z2 [D,D] .[D,D]3 | %13
 z2 A, .A,3 | z2 [D,A,][D,A,] z [D,D] | [G,DG]2 [G,D] [G,D]2 [G,DG] | [E,E]2 [E,E] [E,B,]2 [E,E] | %17
 [A,EA]2 [A,E] [A,E]2 [A,E] | [A,CG]4 z2 | z2[K:bass] [D,A,] .[D,A,]3 | z2 [D,A,] .[D,A,]3 | %21
 z2 [D,=A,] .[D,A,]3 | z2 [G,B,][G,B,] z[K:treble] [G,DG] | [A,CG]2 [A,C] [A,C]2 [A,CG] | %24
 [A,CG]2[K:bass] [A,C] [A,C]2 A, | D,2 D, [D,B,]2 [D,=A,] |[M:5/8] [D,A,]-[D,A,]- [D,A,]3 |] %27
V:3
 x6 | x6 | G->[GB][Gd] [Fd]2 [FA] | C->[CE][CB] C->[CE][CB] |[M:5/8] z2 C D2 |[M:1/8] x | %6
[M:3/4] x6 | x6 | x6 |[M:5/8] x5 |[M:1/8] x |[M:3/4] z2 .F2 z/ =G/B | A6 | z2 .G2 z/ d/e | %14
 z2 FF z [FA] | z2 .G2 z/ =A/B | =G2 .G2 z/ c/[GB] | z2 A A2 A | x6 | z2 .F2 z/ e/d | A6 | %21
 z2 .F2 z/ e/d | z2 GG z B | A6 | z2 .G2 z/ B/[CGA] | [DF]2 F G2 G |[M:5/8] F-F- F3 |] %27
V:4
 x6 | x6 | x6 | x6 |[M:5/8] x5 |[M:1/8] x |[M:3/4] x6 | [D,B,]2[K:treble][K:bass] z2 z2 | %8
 [G,G]->[G,CG] .[G,DG]2 z/ D/[A,CG] |[M:5/8][K:bass] x5 |[M:1/8] x |[M:3/4] x6 | x6 | x6 | x6 | %15
 x6 | x6 | x6 | x6 | x2[K:bass] x4 | x6 | x6 | x5[K:treble] x | x6 | x2[K:bass] x4 | x6 | %26
[M:5/8] x5 |] %27
V:5
 x6 | x6 | x6 | x6 |[M:5/8] x5 |[M:1/8] x |[M:3/4] x6 | x6 | x6 |[M:5/8] x5 |[M:1/8] x | %11
[M:3/4] z2 z .F3 | x6 | z2 z .G3 | x6 | z2 z .G3 | z2 z .=G3 | x6 | x6 | z2 z .F3 | x6 | z2 z .F3 | %22
 x6 | z2 z .G3 | z2 z .G3 | x6 |[M:5/8] x5 |] %27

